X: 242
M:6/4
L:1/4
K:D
e2ee2c | d2ef3 | efgf3 | efgf3 | gfegfe | fedc2B | d2AF2B | A2dc2d | e2eagf | efcd3 ||
M:6/8
L:1/8
K:Dm
dDE FED | DDE FED | def eag | fed e^ca | dDE FED | DDE FED | def eag | fed edc | =BA^GA3 ||
K:D
a | dcd ABc | dAFD2d | def eag | fed cBA | dcdABc | dAc eAe | fed cBA | AECA,2e | ecA ecA |
efgg2f | efg gfe | dcB dcB | Bdf B/c/d/e/f | bfdB3 | FGA FGA | dAF GFE | GBe GBe |

